X: 09083
T: MURRAY'S HORNPIPE
C: Bob McQuillen 16 May 92 - Mother's Day
B: Bob's Note Book 9 p. 83
R: reel
Z: 2016 John Chambers <jc:trillian.mit.edu>
L: 1/8
M: C
K: D
A2 \
| dfed cedc | BGBd A2FA | GBAG FAGF | G2ED EGFE |
| DEFD E2FE | DFAB | A2FA | Bdce dfeg | f2d2d2 :|
|: de \
| fgaf e2fe | dfed c2dc | BcdB AFBA | G2E2 E2FE |
| DFAB A2FA | BcdB A2dB | Adfa gecd | e2d2d2 :|
%%begintext align
%% Weekend finds a small group of us musical types
%% gathered for our annual get-together at Camp Isabella
%% Freedman, in Falls Village, CT. Called The Indian Neck
%% Folk Festival (that's where it used to be held), it is a happy
%% time. Robert Murray's cooking contributes to that
%% happiness, so much so that I thought he deserved a tune of
%% his own for all his hard work. I Hope you agree! Thanks, Robert!
%%endtext

%%sep 1 1 500

%%sep 1 1 500

